public/assets/img/arrow-left.svg

<svg width="20" height="20" viewBox="0 0 20 20" fill="none" xmlns="http://www.w3.org/2000/svg">
<path d="M8.86391 15.4232C8.65558 15.4232 8.45376 15.3386 8.27797 15.1628L4.00714 10.905C3.84438 10.7422 3.74672 10.5143 3.74672 10.2865C3.74672 10.0586 3.84438 9.82424 4.00714 9.66799L8.26495 5.41018C8.44725 5.22788 8.65558 5.14325 8.86391 5.14325C9.34568 5.14325 9.68422 5.4883 9.68422 5.93752C9.68422 6.18492 9.58006 6.38023 9.43032 6.53648L7.95245 8.02085L6.30532 9.53127L7.77016 9.45315H15.3939C15.9082 9.45315 16.2532 9.79169 16.2532 10.2865C16.2532 10.7813 15.9082 11.1198 15.3939 11.1198H7.77016L6.30532 11.0352L7.95245 12.5521L9.43032 14.03C9.58006 14.1862 9.68422 14.3815 9.68422 14.6289C9.68422 15.0847 9.34568 15.4232 8.86391 15.4232Z" fill="#141029" fill-opacity="0.8"/>
</svg>

<svg width="20" height="20" fill="none" xmlns="http://www.w3.org/2000/svg"><path d="M8.864 15.423a.82.82 0 0 1-.586-.26l-4.27-4.258a.89.89 0 0 1-.261-.618c0-.228.097-.463.26-.619L8.265 5.41a.84.84 0 0 1 .599-.267c.482 0 .82.345.82.795a.845.845 0 0 1-.254.598L7.952 8.021 6.305 9.53l1.465-.078h7.624c.514 0 .86.339.86.834 0 .494-.346.833-.86.833H7.77l-1.465-.085 1.647 1.517L9.43 14.03c.15.156.254.352.254.599 0 .456-.338.794-.82.794Z" fill="#141029" fill-opacity=".8"/></svg>
